X:1
T:Regali ex progenie
T:Regali ex progenie
T:Adam of Fulda
T:© 2009 by Paul R Marchesano. May be freely copied for nonprofit use.
T:© 2009 by Paul R Marchesano. May be freely copied for nonprofit use.
T:© 2009 by Paul R Marchesano. May be freely copied for nonprofit use.
T:© 2009 by Paul R Marchesano. May be freely copied for nonprofit use.
T:© 2009 by Paul R Marchesano. May be freely copied for nonprofit use.
T:© 2009 by Paul R Marchesano. May be freely copied for nonprofit use.
T:© 2009 by Paul R Marchesano. May be freely copied for nonprofit use.
T:© 2009 by Paul R Marchesano. May be freely copied for nonprofit use.
C:Adam of Fulda
Z:© 2009 by Paul R Marchesano. May be freely copied for nonprofit use.
%%score 1 2 3 4
L:1/8
Q:1/4=136
M:2/2
K:Bb
V:1 treble nm="Soprano" snm="S."
V:2 treble nm="Alto" snm="A."
V:3 treble-8 nm="Tenor" snm="T."
V:4 bass nm="Bass" snm="B."
V:1
 z8 | z8 | z8 | z8 | z8 | z8 | z8 | z8 | z8 | B8 | c4 e4 | d2 d3 cde | c4 c4 | B2 B4 AG | %14
w: |||||||||Re-|ga- *||||
 A2 B2 cBcA | B4 z2 B2 | c4 e4 | d2 d3 c de | c4 c4 | B2 B4 AG | A2 B2 cBcA | B8 | z8 | B8 | %24
w: |li re-|ga- *|||||li||re-|
 c4 e4 | d6 d2- | d4 d2 cB | A2 B2 cBcA | B4 z4 | f8- | f8 | f8 | d4 z4 | c6 c2- | cBAG ABcA | %35
w: ga- *||||li|ex|_|pro-||ge- ni-||
 B4 z4 | f8- | f8 | d6 d2- | d4 d2 cB | A2 B2 cBcA | B8- | B8 | z8 | f6 f2- | fedc d2 cB | %46
w: e|Ma-||* ri-|||a|_||ex- or-||
 A2 B2 cBcA | B8- | B8 | z8 | f3 e dc d2 | d2 cB A4 | G3 A B2 c2 | B2 G3 A B2- | B2 AG F2 B2- | %55
w: |ta|_||re- * * * *|ful- * * *||||
 B2 AG F2 f2- | f2 ed c4 | f6 f2- | fedc d4 | B4 d3 e | fg f3 edc | B2 e4 d2 | e2 dc B4 | z4 B4 | %64
w: |||||||* * * get:|cu-|
 A3 B cd c2- | cBAG A4 | B6 B2- | B2 AG F4 | E2 e3 d c2- | c2 BA G4 | F8 | B8 | B4 B4 | B4 B4 | %74
w: jus _ _ _ _|_ _ _ _ _|pre- ci-||bus, _ _ _|_ _ _ _|cu-||jus pre-|ci- bus,|
 B6 c2- | cBAG A4 | B8- | B4 B4 | A3 B cd c2- | cBAG A4 | B8- | B8 | z8 | z8 | z8 | B8 | A8 | %87
w: pre- ci-|* * * * bus,|nos|_ ad-|ju- * * * *|* * * * va-|ri,|_||||men-||
 A6 B2 | c4 c4 | F6 f2- | f2 B2 d2 cB | A2 B2 cBcA | B8- | B8 | z8 | e8 | d2 d3 cde | f3 e dc d2- | %98
w: te _|_ _|et _|_ _ spi- ri- *|tu _ _ _ _ _|_|||de-|vo- tis- * * *||
 dcBA B4 | c4 z4 | A3 B c2 c2- | cBAG A4 | F3 G A2 B2- | B2 AG A4 | B8 | z8 | f6 f2- | f2 ed c4 | %108
w: * * * * si-|me|de- * vo- tis-|* si- * * me|_ _ _ _||||po- sci-||
 d6 e2- | edcB ABcA | B8 |] %111
w: ||mus.|
V:2
 F8 | G4 B4 | A2 A3 GAB | G4 G4 | F2 F4 =ED | =E2 F4 E2 | F2 D4 CB, | CB,A,G, F,3 G, | %8
w: Re-|ga- *|||||||
 A,2 B,4 A,2 | B,8 | z8 | B,8 | C4 E4 | D2 D3 CDE | C4 C4 | B,2 B,4 A,G, | A,2 B,4 A,2 | B,8 | z8 | %19
w: |li||re-|ga- *|||||li||
 B,8 | C4 E4 | D2 D3 CDE | C4 C4 | B,2 B,4 A,G, | A,2 B,4 A,2 | B,8 | F8- | F8 | D4 z4 | D6 D2- | %30
w: re-|ga- *|||||li|_|||ex pro-|
 D2 D2 D2 CB, | A,2 B,2 CB,CA, | B,3 C D2 E2 | F8- | F8- | F4 z4 | C6 C2- | CB,A,G, A,B,CA, | %38
w: * ge- ni- * *|||e|_||Ma- ri-||
 B,4 z4 | F6 F2- | F2 ED C4 | D6 D2- | D4 D2 CB, | A,2 B,2 CB,CA, | B,8- | B,8 | z8 | F6 F2- | %48
w: a,|Ma- ri-||* a|_ _ _ _|||||ex- or-|
 FEDC D2 CB, | A,2 B,2 CB,CA, | B,3 CDE F2- | FB, E4 D2 | E4 G3 A | B2 c2 B2 G2- | GA B4 AG | %55
w: * * * * ta _ _|_ _ _ _ _ _||* * * re-|ful- * *|||
 F2 B4 AG | F2 F4 ED | C4 F4- | F2 F3 EDC | D4 B,4 | B6 B2- | B2 AG F4 | E6 DC | B,4 F4- | %64
w: |||||||||
 F2 F4 ED | C2 D2 E2 F2 | D3 E F2 G2- | G2 FE D4 | E3 F G_A G2- | GFED E4 | F8- | F4 F4 | G4 G4 | %73
w: * get: _ _|_ _ _ _|||cu- * * * jus|_ _ _ _ _|pre-|* ci-|bus, pre-|
 G4 G4 | F6 F2- | F2 ED C4 | B,CDE F2 G2- | GF F4 =E2 | F6 F2- | F2 =ED C4 | B,4 z4 | D3 E F2 G2 | %82
w: ci- bus,|pre- ci-|* * * bus,|nos _ _ _ _ _|_ _ ad- *|ju- va-||ri,|nos _ ad- ju-|
 F2 G2 F2 G2 | F2 G2 F2 G2- | GFED E4 | D4 z4 | F8- | F4 F4 | E4 E4 | D4 z2 B,2- | B,CDE D2 E2 | %91
w: va- * * *|||ri,|men-|* te|_ _|* et|_ _ _ _ spi- ri-|
 F2 G2 F4 | D8 | D3 E F2 G2 | F4 D2 E2- | EDCB, A,4 | B,4 D3 C | DE F3 EDC | D3 CB,A, B,2 | F,8 | %100
w: tu _ _|_|de- * vo- *|tis- si- me|_ _ _ _ _|* de- *|vo- * tis- * * *|si- * * * *|me|
 F8- | F4 F4 | B6 AG | F2 E2 F4 | D3 E F2 G2- | GFED E4 | D6 D2- | D2 CB, A,4 | B,4 z2 G,2- | %109
w: _||||de- * vo- tis-|* si- * * me|po- sci-|||
 G,2 G2 F4 | F8 |] %111
w: |mus.|
V:3
 z8 | z8 | z8 | z8 | z8 | z8 | z8 | z8 | z8 | z8 | z8 | z8 | z8 | z8 | z8 | z8 | z8 | z8 | z8 | %19
w: |||||||||||||||||||
 z8 | z8 | z8 | z8 | z8 | z8 | B8 | B8 | c8 | B8 | B8 | B8 | c8 | B8 | c8 | c8 | d8 | c8- | c8 | %38
w: ||||||Re-|ga-||li|ex|pro-|ge-||ni-|e|Ma-|||
 B8 | B8 | z8 | B8 | B8 | c8 | d8- | d8 | e8 | d8- | d8 | z8 | z8 | z8 | e8- | e8 | d8- | d8 | %56
w: ri-|a||ex-|or-|ta|_||||||||re-||ful-||
 c8- | c8 | B8- | B8 | z8 | z8 | B8 | B8 | c8- | c8 | B4 B4 | B8 | c8- | c8 | d8- | d8 | e8- | e8 | %74
w: get:|_|||||cu-|jus|pre-||* ci-|bus,|nos|_|||||
 d8 | c8 | z8 | z8 | c8 | c8 | d8 | B8 | B8 | B8 | G8 | B6 AG | F8 | F8 | G8 | B8 | B8 | c8 | B8 | %93
w: nos|_|||ad-|ju-||va-|ri,|men-|te|_ _ _||et|spi-||ri-||tu|
 z8 | z8 | z8 | B8 | B8 | B8 | A8 | c8 | c8 | d8 | c8 | B8 | G6 A2 | B8 | f8 | f6 g2- | gfed c4 | %110
w: |||de-|vo-|tis-||si-|me|_||po-|sci- *|||||
 B8 |] %111
w: mus.|
V:4
 z8 | z8 | F,8 | G,4 B,4 | A,2 A,3 G,A,B, | G,4 G,4 | F,2 F,4 E,D, | E,4 F,2 D,2- | D,2 C,B,, C,4 | %9
w: ||Re-|ga- *||||||
 B,,6 B,2- | B,2 A,G, A,B,CA, | B,4 z4 | z8 | B,,8 | C,4 E,4 | D,2 D,3 C,D,E, | C,4 C,4 | %17
w: ||li||re-|ga- *|||
 B,4 B,,4 | C4 E4 | D2 D3 CDE | C4 C4 | B,4 B,,4 | C,4 E,4 | D,2 D,3 C,D,E, | C,4 C,4 | B,,8- | %26
w: |||||||li ex|pro-|
 B,,8 | F,8 | B,,4 z4 | B,,8- | B,,8 | F,8 | B,,4 B,4 | F,8- | F,8 | B,,4 B,4 | F,8- | F,8 | %38
w: ||ge-|ni-|||e _|_||* Ma-|ri-||
 B,,8- | B,,8 | F,8 | B,,8- | B,,8 | F,8 | B,,8- | B,,4 B,,4 | C,8 | B,,8- | B,,4 B,,4 | F,8 | %50
w: a,|_|Ma-|ri-||a|ex-|* or-||ta|_ Ma-|ri-|
 B,,4 B,2 B,2- | B,2 A,G, F,4 | E,8- | E,8 | B,,8- | B,,8 | F,8- | F,8 | B,,8 | z8 | B,8- | B,8 | %62
w: a _ _|_ _ _ _|||||||||ex-||
 E,6 E,2- | E,2 D,C, B,,4 | F,6 F,2- | F,2 E,D, C,2 F,2 | B,,8- | B,,8 | z8 | z8 | B,,8- | B,,8 | %72
w: or- ta|_ _ _ _|re- ful-|* * * get: _|_||||cu-||
 E,8- | E,8 | B,,4 B,4 | F,8 | B,,8 | B,4 G,4 | F,8- | F,8 | B,,4 z4 | B,,3 C, D,2 E,2 | %82
w: ||jus _|pre-||* ci-|bus,|_||nos _ ad- ju-|
 D,2 E,2 D,2 E,2 | D,2 E,2 D,2 E,2- | E,D,C,B,, C,4 | B,,6 C,2 | D,6 D,2- | D,4 D,4 | C,8 | %89
w: va- * * *|||ri, _|men- te|_ _||
 B,,2 B,3 C D2- | DCB,A, B,2 A,G, | F,2 B,,2 F,4 | B,,8 | B,,3 C, D,2 E,2 | F,2 G,A, B,2 G,2- | %95
w: * et _ spi-|* ri- * * * * *|tu _ _|_|de- * vo- *|tis- * * si- me|
 G,F,E,D, C,4 | B,,8 | z4 B,,4 | B,,4 B,,4 | F,8- | F,4 F,4 | F,8 | B,,8 | F,8 | B,,3 C, D,2 E,2- | %105
w: _ _ _ _ _||de-|vo- tis-|si-|* me|_|||de- * vo- tis-|
 E,D,C,B,, C,4 | B,,2 B,4 A,G, | F,8 | B,,3 C, D,2 C,2- | C,D, E,2 F,4 | B,,8 |] %111
w: * si- * * me|_ _ _ _||po- * * *|* * * sci-|mus.|

